src/components/00-materials/images-raw/Puzzle.svg

<svg width="96" height="96" viewBox="0 0 96 96" fill="none" xmlns="http://www.w3.org/2000/svg">
<path d="M74 12C74.5571 12.7428 74.8964 13.6262 74.9798 14.551C75.0632 15.4758 74.8874 16.4055 74.4721 17.2361C74.0569 18.0666 73.4185 18.7651 72.6287 19.2533C71.8388 19.7414 70.9286 20 70 20C69.0714 20 68.1612 19.7414 67.3713 19.2533C66.5815 18.7651 65.9431 18.0666 65.5279 17.2361C65.1126 16.4055 64.9368 15.4758 65.0202 14.551C65.1036 13.6262 65.4429 12.7428 66 12H56V22C55.2572 21.4429 54.3738 21.1036 53.449 21.0202C52.5242 20.9368 51.5945 21.1126 50.7639 21.5279C49.9334 21.9431 49.2349 22.5815 48.7467 23.3713C48.2586 24.1612 48 25.0714 48 26C48 26.9286 48.2586 27.8388 48.7467 28.6287C49.2349 29.4185 49.9334 30.0569 50.7639 30.4721C51.5945 30.8874 52.5242 31.0632 53.449 30.9798C54.3738 30.8964 55.2572 30.5571 56 30V40H66C65.4429 39.2572 65.1036 38.3738 65.0202 37.449C64.9368 36.5242 65.1126 35.5945 65.5279 34.7639C65.9431 33.9334 66.5815 33.2349 67.3713 32.7467C68.1612 32.2586 69.0714 32 70 32C70.9286 32 71.8388 32.2586 72.6287 32.7467C73.4185 33.2349 74.0569 33.9334 74.4721 34.7639C74.8874 35.5945 75.0632 36.5242 74.9798 37.449C74.8964 38.3738 74.5571 39.2572 74 40H84V12H74ZM42 82H70V72C69.2572 72.5571 68.3738 72.8964 67.449 72.9798C66.5242 73.0632 65.5945 72.8874 64.7639 72.4721C63.9334 72.0569 63.2349 71.4185 62.7467 70.6287C62.2586 69.8388 62 68.9286 62 68C62 67.0714 62.2586 66.1612 62.7467 65.3713C63.2349 64.5815 63.9334 63.9431 64.7639 63.5279C65.5945 63.1126 66.5242 62.9368 67.449 63.0202C68.3738 63.1036 69.2572 63.4429 70 64V54H60C60.5571 53.2572 60.8964 52.3738 60.9798 51.449C61.0632 50.5242 60.8874 49.5945 60.4721 48.7639C60.0569 47.9334 59.4185 47.2349 58.6287 46.7467C57.8388 46.2586 56.9286 46 56 46C55.0714 46 54.1612 46.2586 53.3713 46.7467C52.5815 47.2349 51.9431 47.9334 51.5279 48.7639C51.1126 49.5945 50.9368 50.5242 51.0202 51.449C51.1036 52.3738 51.4429 53.2572 52 54H42V64V82ZM39 35C40.0819 35 41.1345 35.3509 42 36V26H14V36C14.7428 35.4429 15.6262 35.1036 16.551 35.0202C17.4758 34.9368 18.4055 35.1126 19.2361 35.5279C20.0666 35.9431 20.7651 36.5815 21.2533 37.3713C21.7414 38.1612 22 39.0714 22 40C22 40.9286 21.7414 41.8388 21.2533 42.6287C20.7651 43.4185 20.0666 44.0569 19.2361 44.4721C18.4055 44.8874 17.4758 45.0632 16.551 44.9798C15.6262 44.8964 14.7428 44.5571 14 44V54H24C23.4429 54.7428 23.1036 55.6262 23.0202 56.551C22.9368 57.4758 23.1126 58.4055 23.5279 59.2361C23.9431 60.0666 24.5815 60.7651 25.3713 61.2533C26.1612 61.7414 27.0714 62 28 62C28.9286 62 29.8388 61.7414 30.6287 61.2533C31.4185 60.7651 32.0569 60.0666 32.4721 59.2361C32.8874 58.4055 33.0632 57.4758 32.9798 56.551C32.8964 55.6262 32.5571 54.7428 32 54H42V44C41.3662 44.4754 40.6285 44.7933 39.8477 44.9276C39.0669 45.0619 38.2654 45.0088 37.5092 44.7726C36.7529 44.5363 36.0637 44.1238 35.4982 43.5689C34.9327 43.0141 34.5071 42.3327 34.2566 41.5811C34.006 40.8295 33.9377 40.0292 34.0572 39.246C34.1767 38.4628 34.4805 37.7192 34.9438 37.0765C35.407 36.4337 36.0164 35.9103 36.7216 35.5493C37.4268 35.1883 38.2077 35 39 35Z" stroke="#00008F" stroke-width="2" stroke-linecap="round" stroke-linejoin="round"/>
<path d="M14 54V82H24C23.4429 81.2572 23.1036 80.3738 23.0202 79.449C22.9368 78.5242 23.1126 77.5945 23.5279 76.7639C23.9431 75.9334 24.5815 75.2349 25.3713 74.7467C26.1612 74.2586 27.0714 74 28 74C28.9286 74 29.8388 74.2586 30.6287 74.7467C31.4185 75.2349 32.0569 75.9334 32.4721 76.7639C32.8874 77.5945 33.0632 78.5242 32.9798 79.449C32.8964 80.3738 32.5571 81.2572 32 82H42V72C42.7428 72.5571 43.6262 72.8964 44.551 72.9798C45.4758 73.0632 46.4055 72.8874 47.2361 72.4721C48.0666 72.0569 48.7651 71.4185 49.2533 70.6287C49.7414 69.8388 50 68.9286 50 68C50 67.0714 49.7414 66.1612 49.2533 65.3713C48.7651 64.5815 48.0666 63.9431 47.2361 63.5279C46.4055 63.1126 45.4758 62.9368 44.551 63.0202C43.6262 63.1036 42.7428 63.4429 42 64" stroke="#00008F" stroke-width="2" stroke-linecap="round" stroke-linejoin="round"/>
</svg>

<svg width="96" height="96" viewBox="0 0 96 96" fill="none" xmlns="http://www.w3.org/2000/svg"><path d="M74 12a5 5 0 11-8 0H56v10a5 5 0 100 8v10h10a5 5 0 118 0h10V12H74zM42 82h28V72a5 5 0 110-8V54H60a5 5 0 10-8 0H42v28zm-3-47a5 5 0 013 1V26H14v10a5 5 0 110 8v10h10a5 5 0 108 0h10V44a5 5 0 11-3-9z" stroke="#00008F" stroke-width="2" stroke-linecap="round" stroke-linejoin="round"/><path d="M14 54v28h10a5 5 0 118 0h10V72a5 5 0 100-8" stroke="#00008F" stroke-width="2" stroke-linecap="round" stroke-linejoin="round"/></svg>
